X: 10918
T: Drowsy Maggie
R: reel
M: 4/4
K: Edorian
|:"Em"vE2BE dEBE|uE2BE "D"(AFDF)|"Em"uE2BE dEBE|1 (BA)Bc "D"(dA)FD:|2 (BA)Bc "D"(dA)FA||
"D"d2(fd) "A"c2(ec)|"G"(de)fg (af)ge|"D"d2(fd) "A"c2(ec)|"G"(BA)Bc (dA)FA|
"D"d2(fd) "A"c2(ec)|"G"(de)fg af/g/|(3(agf) (3(gfe) (fd)ec|(BA)Bc "D"(dA)FA||
"Bm"(3(dcB) fB (3(dcB) fB|"A"(3(cBA) eA fAeA|"Bm"(3(dcB) fB (3(dcB) fB|"Bm" (fe)fg "A" (ae)cA|
"Bm"(3(dcB) fB (3(dcB) fB|"A"(3(cBA) eA fAeA|"Em"d2 (fd) c2 (ec)|"Em"(BA)Bc "D"(dA)FD||

